X: 20482
T: NEWCASTLE HORNPIPE
C:
%R: hornpipe, reel
B: Elias Howe "The Musician's Companion" 1843 p.48 #2
S: http://imslp.org/wiki/The_Musician's_Companion_(Howe,_Elias)
Z: 2015 John Chambers <jc:trillian.mit.edu>
M: C|
L: 1/8
K: G
% - - - - - - - - - - - - - - - - - - - - - - - - -
gd |\
B2BB BcAB | G2GG GABc | dBdB edcB | ABcA GFED |\
B2BB Bdce | d2d2 d2gd | BdcB AGFE | D2D2 D2 :|
|: AB |\
c2c2 c2AB | cBAG GFED | d2d2 d2ef | gfed cBAG |\
c2e2 efge | d2B2 Bdef | gdBd dcAF | G2G2 G2 :|
% - - - - - - - - - - - - - - - - - - - - - - - - -

%%sep 1 1 500

